flaticon/grooming/hand-mirror-1.svg

<svg xmlns="http://www.w3.org/2000/svg" width="32" height="32" viewBox="0 0 24 24">
    <path d="M 23.519531 21.070312 L 16.980469 14.199219 C 17.957031 11.566406 16.886719 7.898438 14.09375 5.105469 C 12.265625 3.28125 10.058594 2.21875 7.808594 2.132812 C 7.851562 1.582031 7.640625 1.03125 7.214844 0.605469 C 6.367188 -0.203125 5.007812 -0.203125 4.199219 0.605469 C 4.117188 0.734375 4.03125 0.816406 3.945312 0.988281 C 3.902344 0.945312 3.902344 0.945312 3.902344 0.945312 C 3.519531 0.519531 2.96875 0.308594 2.417969 0.308594 C 1.863281 0.308594 1.3125 0.5625 0.929688 0.945312 C 0.125 1.792969 0.125 3.152344 0.929688 3.960938 C 0.972656 4 0.972656 4 0.972656 4 C 0.847656 4.042969 0.71875 4.171875 0.632812 4.257812 C -0.171875 5.105469 -0.171875 6.421875 0.632812 7.269531 C 1.015625 7.652344 1.609375 7.867188 2.164062 7.867188 C 2.246094 10.117188 3.308594 12.324219 5.132812 14.148438 C 7.214844 16.230469 9.847656 17.375 12.140625 17.375 C 12.859375 17.375 13.535156 17.265625 14.152344 17.042969 L 21.015625 23.574219 C 21.355469 23.871094 21.777344 24 22.203125 24 C 22.671875 24 23.136719 23.828125 23.433594 23.53125 C 24.113281 22.855469 24.15625 21.792969 23.519531 21.070312 Z M 5.730469 13.511719 C 3.902344 11.730469 2.96875 9.519531 3.011719 7.355469 C 3.011719 7.230469 2.925781 7.101562 2.839844 7.015625 C 2.757812 6.972656 2.671875 6.929688 2.585938 6.929688 C 2.542969 6.929688 2.5 6.929688 2.460938 6.929688 C 2.035156 7.015625 1.566406 6.929688 1.226562 6.589844 C 0.71875 6.125 0.71875 5.316406 1.226562 4.808594 C 1.398438 4.597656 1.695312 4.511719 1.992188 4.425781 C 2.203125 4.425781 2.375 4.257812 2.375 4.042969 C 2.417969 3.875 2.289062 3.664062 2.078125 3.621094 C 1.824219 3.578125 1.652344 3.449219 1.523438 3.324219 C 1.015625 2.8125 1.015625 2.007812 1.523438 1.539062 C 1.992188 1.070312 2.839844 1.070312 3.308594 1.539062 C 3.476562 1.667969 3.5625 1.835938 3.648438 2.046875 C 3.691406 2.261719 3.859375 2.386719 4.074219 2.347656 C 4.285156 2.304688 4.453125 2.175781 4.453125 1.964844 C 4.496094 1.667969 4.625 1.410156 4.835938 1.199219 C 5.304688 0.691406 6.109375 0.691406 6.621094 1.199219 C 6.960938 1.496094 7.085938 2.007812 6.960938 2.429688 C 6.917969 2.558594 6.960938 2.726562 7.042969 2.8125 C 7.128906 2.941406 7.257812 2.984375 7.382812 2.984375 C 9.550781 2.941406 11.757812 3.917969 13.542969 5.699219 C 16.597656 8.800781 17.449219 13.171875 15.324219 15.296875 C 13.203125 17.417969 8.828125 16.613281 5.730469 13.511719 Z M 22.882812 22.894531 C 22.542969 23.234375 21.949219 23.234375 21.609375 22.9375 L 14.984375 16.65625 C 15.324219 16.441406 15.664062 16.1875 15.917969 15.933594 C 16.214844 15.679688 16.429688 15.339844 16.640625 15 L 22.925781 21.621094 C 23.265625 21.960938 23.222656 22.554688 22.882812 22.894531 Z M 22.882812 22.894531"/>
    <path d="M 15.578125 10.835938 C 15.28125 9.308594 14.390625 7.78125 13.074219 6.464844 C 11.800781 5.191406 10.230469 4.300781 8.699219 3.960938 C 7.128906 3.621094 5.730469 3.960938 4.835938 4.851562 C 3.902344 5.742188 3.605469 7.144531 3.945312 8.714844 C 4.242188 10.242188 5.132812 11.773438 6.449219 13.089844 C 8.191406 14.785156 10.273438 15.71875 12.054688 15.71875 C 13.117188 15.71875 14.050781 15.421875 14.6875 14.703125 C 15.621094 13.808594 15.917969 12.410156 15.578125 10.835938 Z M 14.136719 14.148438 C 12.648438 15.636719 9.507812 14.914062 7.085938 12.492188 C 5.898438 11.304688 5.050781 9.902344 4.792969 8.542969 C 4.496094 7.230469 4.753906 6.125 5.429688 5.445312 C 6.109375 4.765625 7.214844 4.511719 8.53125 4.808594 C 9.890625 5.105469 11.289062 5.914062 12.480469 7.101562 C 13.667969 8.289062 14.476562 9.691406 14.773438 11.050781 C 15.070312 12.367188 14.816406 13.46875 14.136719 14.148438 Z M 14.136719 14.148438"/>
    <path d="M11.503906 7.527344C11.289062 7.398438 11.035156 7.484375 10.953125 7.695312L8.828125 11.941406C8.699219 12.152344 8.785156 12.410156 9 12.492188 9.039062 12.535156 9.125 12.535156 9.167969 12.535156 9.335938 12.535156 9.464844 12.449219 9.550781 12.324219L11.671875 8.078125C11.800781 7.867188 11.714844 7.609375 11.503906 7.527344zM9 7.527344C8.785156 7.398438 8.53125 7.441406 8.402344 7.652344L7.128906 9.777344C7.003906 9.988281 7.046875 10.242188 7.257812 10.371094 7.300781 10.414062 7.382812 10.414062 7.46875 10.414062 7.640625 10.414062 7.765625 10.328125 7.851562 10.242188L9.125 8.121094C9.253906 7.90625 9.210938 7.652344 9 7.527344zM9 7.527344"/>
</svg>

<svg xmlns="http://www.w3.org/2000/svg" width="32" height="32" viewBox="0 0 24 24">
    <path d="M23.52 21.07l-6.54-6.87c.977-2.634-.093-6.302-2.886-9.095-1.828-1.824-4.035-2.886-6.285-2.972.043-.551-.168-1.102-.594-1.528-.848-.808-2.207-.808-3.016 0-.082.13-.168.211-.254.383L3.902.945A1.986 1.986 0 0 0 2.418.31C1.863.309 1.312.563.93.945c-.805.848-.805 2.207 0 3.016L.973 4c-.125.043-.254.172-.34.258a2.18 2.18 0 0 0 0 3.012c.383.382.976.597 1.531.597.082 2.25 1.145 4.457 2.969 6.281 2.082 2.082 4.715 3.227 7.008 3.227.718 0 1.394-.11 2.011-.332l6.864 6.531c.34.297.761.426 1.187.426.469 0 .934-.172 1.23-.469.68-.676.723-1.738.087-2.46zM5.73 13.512C3.902 11.73 2.97 9.52 3.012 7.355c0-.125-.086-.253-.172-.34a.578.578 0 0 0-.254-.085H2.46c-.426.086-.895 0-1.234-.34-.508-.465-.508-1.274 0-1.781.171-.211.468-.297.765-.383a.38.38 0 0 0 .383-.383c.043-.168-.086-.379-.297-.422a1.022 1.022 0 0 1-.555-.297c-.507-.511-.507-1.316 0-1.785.47-.469 1.317-.469 1.786 0 .168.129.253.297.34.508.042.215.21.34.425.3.211-.042.38-.171.38-.382a1.33 1.33 0 0 1 .382-.766c.469-.508 1.273-.508 1.785 0 .34.297.465.809.34 1.23a.414.414 0 0 0 .082.384.389.389 0 0 0 .34.171c2.168-.043 4.375.934 6.16 2.715 3.055 3.102 3.906 7.473 1.781 9.598-2.12 2.121-6.496 1.316-9.594-1.785zm17.153 9.383c-.34.34-.934.34-1.274.043l-6.625-6.282c.34-.215.68-.468.934-.722.297-.254.512-.594.723-.934l6.285 6.621c.34.34.297.934-.043 1.274zm0 0"/>
    <path d="M15.578 10.836c-.297-1.527-1.187-3.055-2.504-4.371C11.801 5.19 10.23 4.3 8.7 3.96c-1.57-.34-2.969 0-3.863.89-.934.891-1.23 2.294-.89 3.864.296 1.527 1.187 3.058 2.503 4.375 1.742 1.695 3.824 2.629 5.606 2.629 1.062 0 1.996-.297 2.633-1.016.933-.894 1.23-2.293.89-3.867zm-1.441 3.312c-1.489 1.489-4.63.766-7.051-1.656-1.188-1.187-2.035-2.59-2.293-3.949-.297-1.313-.04-2.418.637-3.098.68-.68 1.785-.933 3.101-.636 1.36.296 2.758 1.105 3.95 2.293 1.187 1.187 1.996 2.59 2.292 3.949.297 1.316.043 2.418-.636 3.097zm0 0"/>
    <path d="M11.504 7.527c-.215-.129-.469-.043-.55.168l-2.126 4.246c-.129.211-.043.47.172.551.04.043.125.043.168.043a.455.455 0 0 0 .383-.21l2.12-4.247c.13-.21.044-.469-.167-.55zm0 0M9 7.527c-.215-.129-.469-.086-.598.125L7.13 9.777c-.125.211-.082.465.129.594.043.043.125.043.21.043a.535.535 0 0 0 .384-.172l1.273-2.12c.129-.216.086-.47-.125-.595zm0 0"/>
</svg>
